packages/sources/icons/src/vitamix/perso.svg

<svg width="24" height="24" viewBox="0 0 24 24" fill="none" xmlns="http://www.w3.org/2000/svg">
<path fill-rule="evenodd" clip-rule="evenodd" d="M6.19353 18.8766C7.58195 20.0502 9.3306 20.8109 11.25 20.9692V19.463C9.75006 19.3141 8.38009 18.7232 7.27217 17.8225L6.19353 18.8766ZM5.13198 17.8167L6.208 16.7651C5.28996 15.6505 4.68741 14.2663 4.53696 12.7491C4.52472 12.7497 4.5124 12.75 4.50001 12.75H3.03082C3.18956 14.6741 3.95355 16.4266 5.13198 17.8167ZM17.8116 18.8723L16.7464 17.8073C15.6352 18.7166 14.2583 19.3132 12.75 19.463V20.9692C14.6718 20.8106 16.4223 20.0483 17.8116 18.8723ZM18.8723 17.8117C20.0483 16.4224 20.8107 14.6718 20.9692 12.75H19.5C19.4876 12.75 19.4753 12.7497 19.4631 12.7491C19.3135 14.258 18.7167 15.6353 17.8071 16.7467L18.8723 17.8117ZM6.19404 5.12291L7.2742 6.17588C8.38175 5.27609 9.75095 4.68588 11.25 4.53705V3.03082C9.33081 3.18915 7.58238 3.94963 6.19404 5.12291ZM5.13245 6.18281C3.95376 7.57294 3.18958 9.32565 3.03082 11.25H4.50001C4.5124 11.25 4.52472 11.2503 4.53696 11.2509C4.6875 9.73283 5.29069 8.34788 6.20968 7.23293L5.13245 6.18281ZM14.2523 6.43706C13.5568 6.15522 12.7965 6 12 6C8.68629 6 6 8.68629 6 12C6 15.3137 8.68629 18 12 18C15.3137 18 18 15.3137 18 12C18 11.2021 17.8443 10.4407 17.5616 9.7443C17.5389 9.77529 17.5136 9.80493 17.4855 9.8329L12.53 14.7818C12.3893 14.9222 12.1987 15.0011 12 15.0011H9.75C9.33579 15.0011 9 14.6653 9 14.2511V12C9 11.8011 9.07902 11.6103 9.21967 11.4697L14.2523 6.43706ZM15.6003 7.1998C15.5792 7.22787 15.5559 7.25481 15.5303 7.28035L10.5 12.3107V13.5011H11.6896L16.4256 8.77155C16.5609 8.63641 16.735 8.56374 16.912 8.5535C16.5484 8.03631 16.1053 7.57914 15.6003 7.1998ZM17.8125 5.12845C16.4231 3.95203 14.6722 3.1894 12.75 3.03082V4.53705C14.2598 4.68695 15.638 5.28462 16.7497 6.19538L17.8125 5.12845ZM18.873 6.18926L17.8097 7.25663C18.7178 8.36749 19.3135 9.74358 19.463 11.2509C19.4752 11.2503 19.4876 11.25 19.5 11.25H20.9691C20.8106 9.32863 20.0486 7.57836 18.873 6.18926ZM12 22.5C6.20101 22.5 1.5 17.799 1.5 12C1.5 6.20101 6.20101 1.5 12 1.5C17.799 1.5 22.5 6.20101 22.5 12C22.5 17.799 17.799 22.5 12 22.5Z" fill="#001018"/>
</svg>

<svg width="24" height="24" fill="none" xmlns="http://www.w3.org/2000/svg"><path fill-rule="evenodd" clip-rule="evenodd" d="M6.194 18.877a8.96 8.96 0 0 0 5.056 2.092v-1.506a7.465 7.465 0 0 1-3.978-1.64l-1.078 1.054zm-1.062-1.06 1.076-1.052a7.466 7.466 0 0 1-1.671-4.016l-.037.001H3.03a8.96 8.96 0 0 0 2.102 5.067zm12.68 1.055-1.066-1.065a7.466 7.466 0 0 1-3.996 1.656v1.506a8.961 8.961 0 0 0 5.062-2.097zm1.06-1.06a8.96 8.96 0 0 0 2.097-5.062h-1.506a7.465 7.465 0 0 1-1.656 3.997l1.065 1.065zM6.194 5.122l1.08 1.054a7.465 7.465 0 0 1 3.976-1.639V3.031a8.96 8.96 0 0 0-5.056 2.092zm-1.062 1.06a8.96 8.96 0 0 0-2.101 5.068h1.506A7.466 7.466 0 0 1 6.21 7.234l-1.078-1.05zm9.12.255a6 6 0 1 0 3.31 3.307.75.75 0 0 1-.076.089l-4.956 4.949a.75.75 0 0 1-.53.22H9.75a.75.75 0 0 1-.75-.75V12a.75.75 0 0 1 .22-.53l5.032-5.033zM15.6 7.2a.752.752 0 0 1-.07.08l-5.03 5.03v1.191h1.19l4.736-4.73a.747.747 0 0 1 .486-.218A6.035 6.035 0 0 0 15.6 7.2zm2.213-2.072a8.96 8.96 0 0 0-5.063-2.097v1.506c1.51.15 2.888.748 4 1.658l1.063-1.067zm1.06 1.061L17.81 7.257a7.465 7.465 0 0 1 1.653 3.994l.037-.001h1.47a8.96 8.96 0 0 0-2.097-5.06zM12 22.5C6.201 22.5 1.5 17.799 1.5 12S6.201 1.5 12 1.5 22.5 6.201 22.5 12 17.799 22.5 12 22.5z" fill="#001018"/></svg>
